actions/symbolic/tools-check-spelling-symbolic.svg

<?xml version="1.0" encoding="UTF-8" standalone="no"?>
<svg
   xmlns:dc="http://purl.org/dc/elements/1.1/"
   xmlns:cc="http://creativecommons.org/ns#"
   xmlns:rdf="http://www.w3.org/1999/02/22-rdf-syntax-ns#"
   xmlns:svg="http://www.w3.org/2000/svg"
   xmlns="http://www.w3.org/2000/svg"
   xmlns:sodipodi="http://sodipodi.sourceforge.net/DTD/sodipodi-0.dtd"
   xmlns:inkscape="http://www.inkscape.org/namespaces/inkscape"
   viewBox="0 0 16 16"
   id="svg3247"
   version="1.1"
   inkscape:version="0.91 r13725"
   sodipodi:docname="tools-check-spelling-symbolic.svg">
  <metadata
     id="metadata3255">
    <rdf:RDF>
      <cc:Work
         rdf:about="">
        <dc:format>image/svg+xml</dc:format>
        <dc:type
           rdf:resource="http://purl.org/dc/dcmitype/StillImage" />
      </cc:Work>
    </rdf:RDF>
  </metadata>
  <sodipodi:namedview
     pagecolor="#ffffff"
     bordercolor="#666666"
     borderopacity="1"
     objecttolerance="10"
     gridtolerance="10"
     guidetolerance="10"
     inkscape:pageopacity="0"
     inkscape:pageshadow="2"
     inkscape:window-width="640"
     inkscape:window-height="480"
     id="namedview3253"
     showgrid="false"
     inkscape:zoom="41.1875"
     inkscape:cx="3.6783005"
     inkscape:cy="8"
     inkscape:current-layer="svg3247" />
  <defs
     id="defs3051">
    <style
       type="text/css"
       id="current-color-scheme">
      .ColorScheme-Text {
        color:#bebebe;
      }
      </style>
  </defs>
  <path
     style="color:#bebebe;fill:currentColor;fill-opacity:1;stroke:none"
     class="ColorScheme-Text"
     d="m 7.9999995,4.3999991 0,6.0619169 0,0.754792 0.7912561,0 1.5825124,0 c 0.742633,0 1.410406,-0.288559 1.82978,-0.731205 C 12.622922,10.042858 12.804807,9.4796082 12.79699,8.9287465 12.78907,8.3778848 12.570959,7.831225 12.154094,7.3955768 11.737229,6.9599286 11.102554,6.6643728 10.373768,6.6643728 l -0.7912563,0 0,-2.2643737 -1.5825122,0 z m -4.7475365,0.7547912 0,1.5095825 2.299588,0 c -0.043678,0 0.074141,0.1290972 0.074141,0.070762 l 0,0.7076168 -0.7912561,0 c -1.3577005,0 -2.4037331,0.8377125 -2.4232218,1.8633908 -0.00973,0.5128386 0.2528064,1.0214066 0.6923491,1.3680586 0.4395427,0.346652 1.0362211,0.542507 1.7308727,0.542507 l 1.5825121,0 0.7912561,0 0,-0.754792 0,-3.7267812 c 0,-0.8761556 -0.6977217,-1.5682742 -1.6319657,-1.5803442 l -0.024687,0 -2.299588,0 z m 6.3300487,3.0191649 0.7912563,0 c 0.333744,0 0.490301,0.1022403 0.618168,0.2358723 0.127868,0.133632 0.219582,0.3343272 0.222541,0.5425062 0.0032,0.208179 -0.07786,0.3922839 -0.197813,0.5189189 -0.119979,0.1266352 -0.2799,0.2358724 -0.642896,0.2358724 l -0.7912563,0 0,-1.5331698 z m -4.7475365,0.7783785 0.7912561,0 0,0.7547913 -0.7912561,0 C 4.4239889,9.707125 4.2177084,9.5971413 4.1178994,9.5184271 4.0180903,9.4397129 3.993237,9.3840464 3.9942656,9.3297293 3.9966416,9.221096 4.0676152,8.9523337 4.8349752,8.9523337 Z M 4.0437191,11.405405 3.7717248,11.688452 2.1892126,13.198034 a 0.3956676,0.37743335 0 1 0 0.5439886,0.51892 L 4.0437191,12.46683 5.354237,13.716954 5.6262313,14 5.8982256,13.716954 7.2087434,12.46683 8.5192613,13.716954 8.7912556,14 9.0632498,13.716954 10.373768,12.46683 11.684286,13.716954 11.95628,14 12.228274,13.716954 13.810787,12.207371 A 0.3956676,0.37743335 0 1 0 13.266798,11.688452 L 11.95628,12.938575 10.645762,11.688452 10.373768,11.405405 10.101773,11.688452 8.7912556,12.938575 7.4807377,11.688452 7.2087434,11.405405 6.9367492,11.688452 5.6262313,12.938575 4.3157134,11.688452 4.0437191,11.405405 Z"
     id="path3251"
     inkscape:connector-curvature="0" />
</svg>

<svg xmlns="http://www.w3.org/2000/svg" viewBox="0 0 16 16">
  <path fill="#bebebe" d="M8 4.4v6.817h2.374c.742 0 1.41-.289 1.83-.731a2.2 2.2 0 0 0 .593-1.557 2.263 2.263 0 0 0-.643-1.533 2.459 2.459 0 0 0-1.78-.732h-.791V4.4zm-4.748.755v1.51h2.3c-.044 0 .074.128.074.07v.708h-.791c-1.358 0-2.404.837-2.423 1.863-.01.513.253 1.022.692 1.368.44.347 1.036.543 1.73.543H7.21V6.735c0-.876-.698-1.568-1.632-1.58zm6.33 3.019h.792c.334 0 .49.102.618.236.128.133.22.334.222.542a.74.74 0 0 1-.197.52c-.12.126-.28.235-.643.235h-.791V8.174zm-4.747.778h.791v.755h-.791c-.411 0-.617-.11-.717-.189-.1-.078-.125-.134-.124-.188.003-.109.074-.378.841-.378zm-.791 2.453l-.272.283-1.583 1.51a.396.377 0 1 0 .544.519l1.31-1.25 1.311 1.25.272.283.272-.283 1.31-1.25 1.311 1.25.272.283.272-.283 1.31-1.25 1.311 1.25.272.283.272-.283 1.583-1.51a.396.377 0 1 0-.544-.519l-1.31 1.25-1.311-1.25-.272-.283-.272.283-1.31 1.25-1.311-1.25-.272-.283-.272.283-1.31 1.25-1.311-1.25z"/>
</svg>
